public/assets/icons/filter.svg

<svg width="20" height="20" viewBox="0 0 20 20" fill="none" xmlns="http://www.w3.org/2000/svg">
<path fill-rule="evenodd" clip-rule="evenodd" d="M18.9584 5.8335C18.9584 6.17867 18.6786 6.4585 18.3334 6.4585L1.66671 6.4585C1.32153 6.4585 1.04171 6.17867 1.04171 5.8335C1.04171 5.48832 1.32153 5.2085 1.66671 5.2085L18.3334 5.2085C18.6786 5.2085 18.9584 5.48832 18.9584 5.8335Z" fill="#5C5C7B"/>
<path fill-rule="evenodd" clip-rule="evenodd" d="M16.4584 10C16.4584 10.3452 16.1786 10.625 15.8334 10.625L4.16671 10.625C3.82153 10.625 3.54171 10.3452 3.54171 10C3.54171 9.65482 3.82153 9.375 4.16671 9.375L15.8334 9.375C16.1786 9.375 16.4584 9.65482 16.4584 10Z" fill="#5C5C7B"/>
<path fill-rule="evenodd" clip-rule="evenodd" d="M13.9584 14.1665C13.9584 14.5117 13.6786 14.7915 13.3334 14.7915L6.66671 14.7915C6.32153 14.7915 6.04171 14.5117 6.04171 14.1665C6.04171 13.8213 6.32153 13.5415 6.66671 13.5415H13.3334C13.6786 13.5415 13.9584 13.8213 13.9584 14.1665Z" fill="#5C5C7B"/>
</svg>

<svg width="20" height="20" viewBox="0 0 20 20" fill="none" xmlns="http://www.w3.org/2000/svg"><path fill-rule="evenodd" clip-rule="evenodd" d="M18.958 5.834c0 .345-.28.625-.625.625H1.667a.625.625 0 0 1 0-1.25h16.666c.346 0 .625.28.625.625M16.458 10c0 .345-.28.625-.625.625H4.167a.625.625 0 1 1 0-1.25h11.666c.346 0 .625.28.625.625m-2.5 4.167c0 .345-.28.624-.625.624H6.667a.625.625 0 1 1 0-1.25h6.666c.346 0 .625.28.625.625" fill="#5C5C7B"/></svg>
